!!!OTL: Fuesendsliddchen (219a), S. 471
!!!id: T0401
**kern
*clefG2
*k[]
*e:
{8g
=1
16g
16g
8g
8a
8a
=2
8g
8f
8e}
=3
{8e
=4
8g
8g
8a
8a
=5
8g
8f
8e}
=6
{8e
=7
8g
8g
8a
8a
=8
4g
8e}
=9
{8e
=10
8g
8g
8a
8a
=11
16g
16g
8f
4e}
=12
{8g
8g
16a
16a
8a
=13
8g
8f
4e}
=14
{4g
4e
=15
4g
16a
16a
8a
=16
4g
4e}
=17
{4g
8a
8a
=18
4g
8e}
=19
{8e
=20
8g
8g
8a
8a
=21
4g
8e}
==
*-
!!!minrhy: 16
!!!meters: 2/4 ]  ZZ[8
!!!cut: Fuesendsliddchen (219a), S. 471
!!!reg: Luxemburg
!!!trd: Singendes Volk, Esch-Alzette, 1937 posth.
!!!rhy1: X_  XXX_X_X_  X_X_X_
!!!rhy2: X_  X_X_X_X_  X_X_X_
!!!key: T0401  16  E 2/4 ]  ZZ[8
!!!mod: VIERTONSKALA ]  AMBITUS[4
!!!kad: 11111111
!!!akz: 3b3b_3b3b_3b3b_3b3b_3b3b_3b3b3b_3b3b_3b3b_
!!!fot: 'a__av_av_av_av_b__av_av_
!!!for: 'a__b__c__d__e__f__g__c__
!!!fok: '\__^__^__^__\__Sd_\__^__
!! PHRAS[GEMISCHTTAKTIG]
!!!fkt: Ansingelied f&uuml;r Volks- und Festtage, Kinderlied, Kinderliedterno
!!!bem1: Godbringen, fff Mutter des Verfassers, um 1850;
!!!bem2: (219b)- StraPen, fff Witry, 13.12.1932
!! THILL; Mathias
!! PR[44] 2K[3] 2G[0] 3K[0] 3G[3] 4A[6] 4Ü[0] 5A[0] 6K[0] 6G[3]
!! 7K[0] 7G[0] 8A[3] MEHR[0] SI[17] ABS[36] SR[3] SP[14]
!! ST[9] 2k[11] 2g[19] 3k[0] 3g[3] 4d[0] 4ü[0] 5d[6] 6k[0] 6g[0]
!! 7k[0] 7g[0] 8d[0] mehr[0] si[39] dm[-22] sr[31] sp[8]
!! 1F[15] 2F[45] 3F[30] 4F[0] LF[0] 2P[5] 3P[5] 4P[0] TRI[0] DF[5] AB[40]
!! TF[0] U3K[0] U3[0] U4[0] U4Ü[0] U5[8] U6K[0] U6[5] U7K[0] U7[8]
!! N1[30] N2K[0] N2[16] N3K[0] N3[22] N4[3] N4Ü[0] N5[8] N6K[0] N6[0]
!!!n7k: 0] N7[0] O1[0] O2K[0] O2[0] O3K[0] O3[0] HÖ[0
!!!RNB: symbol: &uuml;  = u umlaut (UTF-8: Ã¼)
